public/library/taho-wallet-icon-light.svg

<svg xmlns="http://www.w3.org/2000/svg" width="834" height="705" fill="none" viewBox="0 0 834 705"><path fill="#ef9c32" d="M211.949 222c0 104.881 85.022 190 189.903 190s189.904-85.119 189.904-190S506.733 32 401.852 32s-189.903 85.119-189.903 190"/><path fill="#002825" d="m536.744 139.166-17.169-1a5.17 5.17 0 0 1-3.259-1.44 5.13 5.13 0 0 1-1.544-3.201l-1.505-15.816a1.147 1.147 0 0 0-1.866-.675 1.15 1.15 0 0 0-.393.675l-1.541 15.816a5.06 5.06 0 0 1-1.528 3.218 5.1 5.1 0 0 1-3.275 1.423l-17.168 1.072a1.146 1.146 0 0 0-.945 1.124 1.14 1.14 0 0 0 .945 1.125l17.168 1a5.2 5.2 0 0 1 3.251 1.448 5.16 5.16 0 0 1 1.552 3.193l1.506 15.817a1.146 1.146 0 0 0 1.865.675c.206-.173.345-.412.393-.675l1.505-15.817a5.13 5.13 0 0 1 1.544-3.201 5.17 5.17 0 0 1 3.259-1.44l17.205-1.072a1.144 1.144 0 0 0 .945-1.124 1.145 1.145 0 0 0-.945-1.125"/><path fill="#002825" fill-rule="evenodd" d="m500.65 198.434 2.832 1.999a15.5 15.5 0 0 1 5.627 6.819c.565 1.553.785 3.21.645 4.856a33 33 0 0 1-.609 3.82 29.3 29.3 0 0 1-2.688 7.141 24 24 0 0 1-2.187 3.285l-.394.535.502 3.178c.156 1.267.24 2.543.251 3.82a34.6 34.6 0 0 1-3.349 14.632 34.76 34.76 0 0 1-9.232 11.86l-.466.392-.574.179a105.4 105.4 0 0 1-15.376 4.213 67.4 67.4 0 0 1-16.237 1.392h-.788a162.5 162.5 0 0 0-33.119-6.783q-1.076-.093-2.178-.177c-2.167-.168-4.409-.343-6.711-.716a48 48 0 0 1-8.925-2.285 49.5 49.5 0 0 0-15.627-2.713h-.18a20.636 20.636 0 0 0-2.616 16.423 70 70 0 0 0 7.168 19.851 186 186 0 0 1 10.395 20.28 51.5 51.5 0 0 1 3.584 11.532c.776 4.33.455 8.785-.932 12.96l-1.756 4.963-4.265-3.142a12.4 12.4 0 0 0-2.044-1.178 57.5 57.5 0 0 1-1.433 7.141 49.9 49.9 0 0 1-5.126 11.674c-2.921-23.18-19.197-29.822-35.104-36.313-7.123-2.907-14.172-5.783-19.914-10.101-18.567-13.96-20.072-30.276-8.603-58.839a132 132 0 0 0 7.599-27.241 92 92 0 0 1 1.183-6.248q.059-.435.179-.857l.323-1.464c.042.94.068 1.876.095 2.81.064 2.258.128 4.499.407 6.723a32 32 0 0 0 1.792 8.89 10 10 0 0 0 2.043 3.284c.254.296.533.554.859.855.226.209.475.439.754.716q.71.81 1.541 1.5a27.6 27.6 0 0 0 7.527 4.07 73 73 0 0 0 17.706 3.785c5.807.678 11.721.928 17.671.928h.896a57.6 57.6 0 0 1 18.136 3.07 55 55 0 0 0 16.165 2.857 167.8 167.8 0 0 1 34.087 6.89 61.7 61.7 0 0 0 14.086-1.249c3.297-.643 6.559-1.535 9.785-2.499 7.204-3.035 11.971-11.247 2.222-10.176-2.302.159-4.59.481-6.846.964-1.761.321-3.502.961-5.366 1.645-1.664.612-3.426 1.259-5.387 1.747-3.973.93-8.119.832-12.043-.286a34.9 34.9 0 0 0-10.753-2.535 12.96 12.96 0 0 1 5.628-1.678c1.423-.144 2.7-.094 3.93-.046.597.023 1.183.046 1.769.046 3.357.423 6.762.278 10.071-.428 1.671-.476 3.375-1.391 5.216-2.38 1.477-.793 3.042-1.634 4.749-2.333a31.7 31.7 0 0 1 11.792-2.463h2.437c2.832-3.928 5.233-8.284 4.302-11.854a9.2 9.2 0 0 0-4.373-3.178c-.463-.161-1.365-.395-2.534-.698-4.269-1.107-12.106-3.14-15.173-5.942-2.294-2.321-.932-6.998 8.459-8.926a46.4 46.4 0 0 1 13.083-.393 8.66 8.66 0 0 0 4.444-.393l-.537-.464-2.724-1.928-2.76-2.071-10.753-8.176c-1.756-1.321-3.62-2.677-5.341-3.784l-.86-.5-1.684-.714c-1.112-.464-2.223-1-3.334-1.571a45 45 0 0 1-9.462-6.712c-10.502-8.783-22.259-29.991-25.341-36.917a24 24 0 0 0-12.187-11.925 17.404 17.404 0 0 1 14.087 5.926c.902.746 2.587 3.176 4.623 6.111 4.108 5.924 9.644 13.906 13.047 14.24a24.2 24.2 0 0 0 5.412-.821 40 40 0 0 1-4.623-5.284c-1.842-2.42-3.267-4.919-4.644-7.335-.472-.828-.938-1.646-1.414-2.448a46 46 0 0 0-5.699-8.426 18 18 0 0 0-1.613-1.499 11.6 11.6 0 0 0-1.9-1.143c-1.469-.749-2.974-1.392-4.838-2.106s-3.513-1.357-5.448-2.321l-5.018-2.499-10.036-4.856a178 178 0 0 0-20.395-8.247 105.7 105.7 0 0 0-21.219-4.606 46 46 0 0 0-5.161-.393 8.74 8.74 0 0 0-4.014.857c-.658.288-1.338.647-2.068 1.033-.901.476-1.878.993-2.986 1.466l-4.982 2.285a126.5 126.5 0 0 0-18.495 11.354 50.1 50.1 0 0 0-12.259 11.282 40.4 40.4 0 0 1 14.947 2.143 61.6 61.6 0 0 0-19.068 2.713 69 69 0 0 0-8.854 3.285 56.6 56.6 0 0 0-8.279 4.284 36.5 36.5 0 0 0-7.169 5.391 8.8 8.8 0 0 0-2.007 3.106c-.609 1.322-1.183 2.785-1.72 4.249a137.6 137.6 0 0 0-4.947 18.387 146 146 0 0 0-2.867 37.774 72.4 72.4 0 0 0 7.849 29.348 482 482 0 0 0 12.868-17.601c5.305-7.748 10.358-15.745 14.875-23.814 2.358-4.214 4.443-8.622 6.55-13.078 1.928-4.077 3.874-8.193 6.066-12.236a83 83 0 0 1 7.778-12.318 30 30 0 0 1 5.269-5.355 12.07 12.07 0 0 1 6.882-2.749c-8.029 7.176-14.301 26.456-20.502 48.056-5.054 17.531-22.079 57.518-32.832 58.482-4.194.25-5.699-1.749-8.567-5.819l-2.329-3.214a63.9 63.9 0 0 1-9.319-18.851 94 94 0 0 1-3.406-20.279 141 141 0 0 1 .466-20.244 169 169 0 0 1 3.405-19.815 145 145 0 0 1 5.843-19.28c.645-1.571 1.29-3.142 2.079-4.749q.649-1.351 1.469-2.606a19 19 0 0 1 2.008-2.356 37.9 37.9 0 0 1 8.781-6.213 60.2 60.2 0 0 1 16.954-5.748 35.4 35.4 0 0 1 6.738-9.961 68.6 68.6 0 0 1 8.889-7.748 105.7 105.7 0 0 1 19.104-12.175c1.649-.821 3.8-1.785 5.233-2.392.702-.297 1.437-.679 2.241-1.097.839-.436 1.752-.91 2.777-1.366a16 16 0 0 1 6.882-1.5c2.002.025 4.001.168 5.986.428 7.7.865 15.291 2.516 22.652 4.928A180 180 0 0 1 419 113.031l10.18 4.927 5.053 2.5c1.121.603 2.548 1.155 4.066 1.742l.845.328a64 64 0 0 1 5.412 2.393 21.5 21.5 0 0 1 2.903 1.749q1.34 1.07 2.509 2.321a52.7 52.7 0 0 1 7.169 9.711l.241.418c3.707 6.411 7.151 12.368 12.483 15.863l4.265 2.82v.464l-1.182 2.107-3.943 1c-.75.23-1.38.742-1.756 1.428a2.7 2.7 0 0 0-.323 1.107 22 22 0 0 0 0 2.32 11.8 11.8 0 0 1-.538 3.571 20 20 0 0 1-.577 1.65c-.13.336-.243.629-.319.885a2 2 0 0 0 0 1.57 36.7 36.7 0 0 0 9.642 7.141c.896.5 1.828.928 2.796 1.357l1.469.571c.737.333 1.445.727 2.115 1.178 1.91 1.205 3.481 2.382 5.115 3.606l.62.465 10.753 8.211zm-93.298-22.636a14.5 14.5 0 0 1-2.76 0c-6.165-.357-9.176-4.57-8.172-8.89s.394-5.749-.824-5.749a9.2 9.2 0 0 0-4.624 3.571h-.251a.434.434 0 0 1-.476-.271.4.4 0 0 1-.026-.193c1.291-8.962 6.559-9.355 8.889-9.355a113.4 113.4 0 0 1 21.04 3.571 1.01 1.01 0 0 1 .822.776 1 1 0 0 1-.428 1.045 7.64 7.64 0 0 0-2.213 3.33 7.6 7.6 0 0 0-.224 3.989c.43 4.213-4.588 7.497-10.753 8.176" clip-rule="evenodd"/><path fill="#002825" d="M179.535 635.365h83.838v-7.196c-20.767-1.542-26.664-4.883-26.664-14.649V501.982c0-13.107 2.307-15.934 19.485-15.934 18.203 0 23.844 6.168 31.279 26.471h7.435l-4.359-33.924c-.256-2.313-1.794-3.598-4.102-3.341-3.589.257-9.742.514-15.896.514h-97.938c-6.153 0-12.563-.257-16.152-.514-2.308-.257-3.846 1.028-4.102 3.341L148 512.519h7.435c7.435-20.303 13.076-26.471 31.279-26.471 17.178 0 19.485 2.827 19.485 15.934V613.52c0 9.766-5.897 13.107-26.664 14.649z"/><path fill="#002825" d="M312.838 636.907c17.434 0 31.792-8.738 39.996-18.504 2.051-2.827 4.102-2.313 4.102.514.769 10.537 7.692 17.99 20.254 17.99 7.692 0 15.64-2.57 18.716-8.481v-3.855c-7.435 1.799-12.306-.771-12.306-9.766V562.12c0-32.896-12.563-44.975-42.56-44.975-26.664 0-54.353 8.738-54.353 28.527 0 7.453 4.615 13.107 13.076 13.107 7.947 0 14.613-4.626 14.613-14.649 0-11.308 5.128-18.504 19.229-18.504 16.152 0 23.075 10.28 23.075 28.784v4.626c0 6.168-2.051 7.967-7.948 8.738-52.815 6.939-69.48 20.303-69.48 40.863 0 20.046 16.152 28.27 33.586 28.27m14.358-15.163c-13.845 0-19.998-8.738-19.998-18.761 0-10.794 7.178-23.901 39.226-27.242 8.461-.771 10.256 2.313 10.256 8.224v8.481c0 16.962-12.819 29.298-29.484 29.298M524.526 636.907c7.435 0 15.383-2.57 18.716-8.481v-3.855c-7.436 1.799-12.307-.771-12.307-9.766v-54.484c0-33.153-18.46-43.433-37.176-43.433-21.023 0-31.791 11.822-36.662 16.962-3.333 3.855-6.923 1.028-6.923-8.224v-50.115c0-6.425-3.589-9.509-10.255-8.224l-33.074 6.425v6.939c12.563-1.285 16.409 2.57 16.409 14.135v118.22c0 10.794-4.359 14.135-16.409 15.42v6.939h59.738v-6.939c-12.05-1.285-16.409-4.626-16.409-15.42v-46.774c0-19.018 10.512-33.153 27.433-33.153 17.178 0 26.408 14.135 26.408 33.153v48.83c0 15.163 8.717 21.845 20.511 21.845M614.913 636.907c31.535 0 60.506-21.331 60.506-59.881s-28.971-59.881-60.506-59.881-60.507 21.331-60.507 59.881 28.972 59.881 60.507 59.881m5.384-8.738c-21.793 0-36.919-28.527-36.919-61.423 0-28.013 10.768-40.863 26.151-40.863 21.792 0 36.919 28.527 36.919 61.423 0 28.013-11.025 40.863-26.151 40.863"/></svg>

<svg width="834" height="705" viewBox="0 0 834 705" fill="none" xmlns="http://www.w3.org/2000/svg">
<path d="M211.949 222C211.949 326.881 296.971 412 401.852 412C506.733 412 591.756 326.881 591.756 222C591.756 117.119 506.733 32 401.852 32C296.971 32 211.949 117.119 211.949 222Z" fill="#EF9C32"/>
<path d="M536.744 139.166L519.575 138.166C518.351 138.087 517.196 137.577 516.316 136.726C515.436 135.876 514.889 134.741 514.772 133.525L513.267 117.709C513.219 117.445 513.08 117.206 512.874 117.034C512.667 116.861 512.407 116.767 512.138 116.767C511.868 116.767 511.608 116.861 511.401 117.034C511.195 117.206 511.056 117.445 511.008 117.709L509.467 133.525C509.365 134.746 508.822 135.889 507.939 136.743C507.056 137.596 505.893 138.102 504.664 138.166L487.496 139.238C487.231 139.285 486.991 139.423 486.818 139.629C486.645 139.835 486.551 140.094 486.551 140.362C486.551 140.63 486.645 140.89 486.818 141.096C486.991 141.301 487.231 141.44 487.496 141.487L504.664 142.487C505.885 142.573 507.037 143.086 507.915 143.935C508.794 144.784 509.344 145.915 509.467 147.128L510.973 162.945C511.02 163.208 511.159 163.447 511.365 163.62C511.572 163.792 511.832 163.886 512.102 163.886C512.371 163.886 512.631 163.792 512.838 163.62C513.044 163.447 513.183 163.208 513.231 162.945L514.736 147.128C514.853 145.912 515.4 144.777 516.28 143.927C517.16 143.077 518.315 142.566 519.539 142.487L536.744 141.415C537.009 141.368 537.248 141.23 537.421 141.024C537.594 140.819 537.689 140.559 537.689 140.291C537.689 140.023 537.594 139.763 537.421 139.558C537.248 139.352 537.009 139.213 536.744 139.166Z" fill="#002825"/>
<path fill-rule="evenodd" clip-rule="evenodd" d="M500.65 198.434L503.482 200.433C505.982 202.115 507.937 204.484 509.109 207.252C509.674 208.805 509.894 210.462 509.754 212.108C509.627 213.392 509.423 214.668 509.145 215.928C508.564 218.415 507.66 220.815 506.457 223.069C505.82 224.222 505.089 225.321 504.27 226.354L503.876 226.889L504.378 230.067C504.534 231.334 504.618 232.61 504.629 233.887C504.596 238.949 503.453 243.943 501.28 248.519C499.107 253.095 495.956 257.143 492.048 260.379L491.582 260.771L491.008 260.95C485.997 262.74 480.857 264.149 475.632 265.163C470.296 266.282 464.844 266.749 459.395 266.555H459.037H458.607C447.835 263.149 436.735 260.875 425.488 259.772C424.771 259.709 424.044 259.652 423.31 259.595C421.143 259.427 418.901 259.252 416.599 258.879C413.557 258.405 410.568 257.64 407.674 256.594C402.646 254.855 397.369 253.939 392.047 253.881H391.867C390.316 256.29 389.282 258.993 388.831 261.819C388.381 264.646 388.524 267.535 389.251 270.304C390.623 277.243 393.04 283.936 396.419 290.155C400.297 296.697 403.768 303.47 406.814 310.435C408.457 314.126 409.66 317.996 410.398 321.967C411.174 326.297 410.853 330.752 409.466 334.927L407.71 339.89L403.445 336.748C402.803 336.292 402.119 335.897 401.401 335.57C401.075 337.978 400.596 340.363 399.968 342.711C398.766 346.804 397.044 350.728 394.842 354.385C391.921 331.205 375.645 324.563 359.738 318.072C352.615 315.165 345.566 312.289 339.824 307.971C321.257 294.011 319.752 277.695 331.221 249.132C334.722 240.348 337.27 231.215 338.82 221.891C339.143 219.784 339.537 217.713 340.003 215.643C340.042 215.353 340.102 215.067 340.182 214.786L340.505 213.322C340.547 214.262 340.573 215.198 340.6 216.132C340.664 218.39 340.728 220.631 341.007 222.855C341.179 225.887 341.782 228.881 342.799 231.745C343.26 232.961 343.954 234.076 344.842 235.029C345.096 235.325 345.375 235.583 345.701 235.884C345.927 236.093 346.176 236.323 346.455 236.6C346.928 237.14 347.443 237.641 347.996 238.1C350.277 239.839 352.816 241.212 355.523 242.17C361.244 244.161 367.192 245.432 373.229 245.955C379.036 246.633 384.95 246.883 390.9 246.883H391.796C397.968 246.928 404.092 247.964 409.932 249.953C415.146 251.709 420.595 252.672 426.097 252.81C437.669 253.92 449.093 256.229 460.184 259.7C464.912 259.825 469.638 259.406 474.27 258.451C477.567 257.808 480.829 256.916 484.055 255.952C491.259 252.917 496.026 244.705 486.277 245.776C483.975 245.935 481.687 246.257 479.431 246.74C477.67 247.061 475.929 247.701 474.065 248.385C472.401 248.997 470.639 249.644 468.678 250.132C464.705 251.062 460.559 250.964 456.635 249.846C453.21 248.435 449.579 247.579 445.882 247.311C447.604 246.329 449.529 245.754 451.51 245.633C452.933 245.489 454.21 245.539 455.44 245.587C456.037 245.61 456.623 245.633 457.209 245.633C460.566 246.056 463.971 245.911 467.28 245.205C468.951 244.729 470.655 243.814 472.496 242.825C473.973 242.032 475.538 241.191 477.245 240.492C480.981 238.925 484.984 238.089 489.037 238.029H491.474C494.306 234.101 496.707 229.745 495.776 226.175C494.672 224.702 493.148 223.595 491.403 222.997C490.94 222.836 490.038 222.602 488.869 222.299C484.6 221.192 476.763 219.159 473.696 216.357C471.402 214.036 472.764 209.359 482.155 207.431C486.475 206.683 490.88 206.55 495.238 207.038C496.728 207.297 498.261 207.162 499.682 206.645L499.145 206.181L496.421 204.253L493.661 202.182L482.908 194.006C481.152 192.685 479.288 191.329 477.567 190.222L476.707 189.722L475.023 189.008C473.911 188.544 472.8 188.008 471.689 187.437C468.257 185.616 465.076 183.36 462.227 180.725C451.725 171.942 439.968 150.734 436.886 143.808C434.426 138.481 430.09 134.238 424.699 131.883C427.345 131.736 429.99 132.193 432.432 133.22C434.873 134.248 437.046 135.817 438.786 137.809C439.688 138.555 441.373 140.985 443.409 143.92C447.517 149.844 453.053 157.826 456.456 158.16C458.286 158.092 460.101 157.817 461.868 157.339C460.175 155.716 458.628 153.948 457.245 152.055C455.403 149.635 453.978 147.136 452.601 144.72C452.129 143.892 451.663 143.074 451.187 142.272C449.605 139.263 447.694 136.437 445.488 133.846C444.982 133.314 444.443 132.813 443.875 132.347C443.28 131.906 442.644 131.524 441.975 131.204C440.506 130.455 439.001 129.812 437.137 129.098C435.273 128.384 433.624 127.741 431.689 126.777L426.671 124.278L416.635 119.422C410.014 116.255 403.203 113.501 396.24 111.175C389.345 108.915 382.235 107.372 375.021 106.569C373.31 106.342 371.586 106.211 369.86 106.176C368.472 106.139 367.096 106.433 365.846 107.033C365.188 107.321 364.508 107.68 363.778 108.066C362.877 108.542 361.9 109.059 360.792 109.532L355.81 111.817C349.329 115.066 343.141 118.865 337.315 123.171C332.625 126.224 328.482 130.037 325.056 134.453C330.13 134.221 335.201 134.948 340.003 136.596C333.543 136.494 327.108 137.41 320.935 139.309C317.912 140.201 314.954 141.299 312.081 142.594C309.208 143.792 306.438 145.225 303.802 146.878C301.198 148.374 298.79 150.185 296.633 152.269C295.751 153.152 295.067 154.211 294.626 155.375C294.017 156.697 293.443 158.16 292.906 159.624C290.834 165.633 289.181 171.776 287.959 178.011C285.368 190.426 284.404 203.124 285.092 215.785C285.604 226.01 288.278 236.011 292.941 245.133C297.35 239.385 301.651 233.494 305.809 227.532C311.114 219.784 316.167 211.787 320.684 203.718C323.042 199.504 325.127 195.096 327.234 190.64C329.162 186.563 331.108 182.447 333.3 178.404C335.525 174.079 338.127 169.957 341.078 166.086C342.601 164.088 344.371 162.288 346.347 160.731C348.294 159.116 350.702 158.155 353.229 157.982C345.2 165.158 338.928 184.438 332.727 206.038C327.673 223.569 310.648 263.556 299.895 264.52C295.701 264.77 294.196 262.771 291.328 258.701L288.999 255.487C284.871 249.758 281.722 243.389 279.68 236.636C277.807 230.02 276.665 223.22 276.274 216.357C275.945 209.606 276.101 202.841 276.74 196.113C277.48 189.446 278.617 182.829 280.145 176.298C281.644 169.744 283.596 163.302 285.988 157.018C286.633 155.447 287.278 153.876 288.067 152.269C288.499 151.369 288.99 150.499 289.536 149.663C290.141 148.825 290.812 148.037 291.544 147.307C294.159 144.83 297.116 142.738 300.325 141.094C305.656 138.345 311.371 136.407 317.279 135.346C318.939 131.668 321.218 128.299 324.017 125.385C326.751 122.553 329.725 119.961 332.906 117.637C338.817 112.908 345.222 108.826 352.01 105.462C353.659 104.641 355.81 103.677 357.243 103.07C357.945 102.773 358.68 102.391 359.484 101.973C360.323 101.537 361.236 101.063 362.261 100.607C364.414 99.6022 366.766 99.0898 369.143 99.1071C371.145 99.1316 373.144 99.2746 375.129 99.5355C382.829 100.4 390.42 102.051 397.781 104.463C405.03 106.867 412.117 109.729 419 113.031L429.18 117.958L434.233 120.458C435.354 121.061 436.781 121.613 438.299 122.2C438.578 122.308 438.86 122.417 439.144 122.528C440.972 123.242 442.692 123.992 444.556 124.921C445.569 125.427 446.539 126.012 447.459 126.67C448.351 127.383 449.189 128.158 449.968 128.991C452.723 131.944 455.128 135.203 457.137 138.702C457.218 138.841 457.298 138.981 457.378 139.12C461.085 145.531 464.529 151.488 469.861 154.983L474.126 157.803V158.267L472.944 160.374L469.001 161.374C468.251 161.604 467.621 162.116 467.245 162.802C467.058 163.143 466.948 163.521 466.922 163.909C466.881 164.682 466.881 165.456 466.922 166.229C466.928 167.44 466.746 168.644 466.384 169.8C466.197 170.441 465.986 170.987 465.807 171.45C465.677 171.786 465.564 172.079 465.488 172.335C465.382 172.583 465.327 172.85 465.327 173.12C465.327 173.39 465.382 173.657 465.488 173.905C468.287 176.797 471.545 179.209 475.13 181.046C476.026 181.546 476.958 181.974 477.926 182.403L479.395 182.974C480.132 183.307 480.84 183.701 481.51 184.152C483.42 185.357 484.991 186.534 486.625 187.758C486.83 187.912 487.037 188.067 487.245 188.223L497.998 196.434L500.65 198.434ZM407.352 175.798C406.434 175.886 405.51 175.886 404.592 175.798C398.427 175.441 395.416 171.228 396.42 166.908C397.424 162.588 396.814 161.159 395.596 161.159C393.706 161.817 392.083 163.071 390.972 164.73H390.721C390.656 164.741 390.589 164.737 390.525 164.718C390.462 164.7 390.403 164.667 390.355 164.622C390.306 164.577 390.268 164.521 390.245 164.459C390.221 164.398 390.213 164.331 390.219 164.266C391.51 155.304 396.778 154.911 399.108 154.911C406.219 155.438 413.263 156.633 420.148 158.482C420.347 158.514 420.533 158.605 420.679 158.743C420.826 158.882 420.927 159.061 420.97 159.258C421.012 159.455 420.994 159.66 420.918 159.846C420.842 160.032 420.711 160.192 420.542 160.303C419.521 161.198 418.757 162.347 418.329 163.633C417.9 164.92 417.823 166.296 418.105 167.622C418.535 171.835 413.517 175.119 407.352 175.798Z" fill="#002825"/>
<path d="M179.535 635.365H263.373V628.169C242.606 626.627 236.709 623.286 236.709 613.52V501.982C236.709 488.875 239.016 486.048 256.194 486.048C274.397 486.048 280.038 492.216 287.473 512.519H294.908L290.549 478.595C290.293 476.282 288.755 474.997 286.447 475.254C282.858 475.511 276.705 475.768 270.551 475.768H172.613C166.46 475.768 160.05 475.511 156.461 475.254C154.153 474.997 152.615 476.282 152.359 478.595L148 512.519H155.435C162.87 492.216 168.511 486.048 186.714 486.048C203.892 486.048 206.199 488.875 206.199 501.982V613.52C206.199 623.286 200.302 626.627 179.535 628.169V635.365Z" fill="#002825"/>
<path d="M312.838 636.907C330.272 636.907 344.63 628.169 352.834 618.403C354.885 615.576 356.936 616.09 356.936 618.917C357.705 629.454 364.628 636.907 377.19 636.907C384.882 636.907 392.83 634.337 395.906 628.426V624.571C388.471 626.37 383.6 623.8 383.6 614.805V562.12C383.6 529.224 371.037 517.145 341.04 517.145C314.376 517.145 286.687 525.883 286.687 545.672C286.687 553.125 291.302 558.779 299.763 558.779C307.71 558.779 314.376 554.153 314.376 544.13C314.376 532.822 319.504 525.626 333.605 525.626C349.757 525.626 356.68 535.906 356.68 554.41V559.036C356.68 565.204 354.629 567.003 348.732 567.774C295.917 574.713 279.252 588.077 279.252 608.637C279.252 628.683 295.404 636.907 312.838 636.907ZM327.196 621.744C313.351 621.744 307.198 613.006 307.198 602.983C307.198 592.189 314.376 579.082 346.424 575.741C354.885 574.97 356.68 578.054 356.68 583.965V592.446C356.68 609.408 343.861 621.744 327.196 621.744Z" fill="#002825"/>
<path d="M524.526 636.907C531.961 636.907 539.909 634.337 543.242 628.426V624.571C535.806 626.37 530.935 623.8 530.935 614.805V560.321C530.935 527.168 512.475 516.888 493.759 516.888C472.736 516.888 461.968 528.71 457.097 533.85C453.764 537.705 450.174 534.878 450.174 525.626V475.511C450.174 469.086 446.585 466.002 439.919 467.287L406.845 473.712V480.651C419.408 479.366 423.254 483.221 423.254 494.786V613.006C423.254 623.8 418.895 627.141 406.845 628.426V635.365H466.583V628.426C454.533 627.141 450.174 623.8 450.174 613.006V566.232C450.174 547.214 460.686 533.079 477.607 533.079C494.785 533.079 504.015 547.214 504.015 566.232V615.062C504.015 630.225 512.732 636.907 524.526 636.907Z" fill="#002825"/>
<path d="M614.913 636.907C646.448 636.907 675.419 615.576 675.419 577.026C675.419 538.476 646.448 517.145 614.913 517.145C583.378 517.145 554.406 538.476 554.406 577.026C554.406 615.576 583.378 636.907 614.913 636.907ZM620.297 628.169C598.504 628.169 583.378 599.642 583.378 566.746C583.378 538.733 594.146 525.883 609.529 525.883C631.321 525.883 646.448 554.41 646.448 587.306C646.448 615.319 635.423 628.169 620.297 628.169Z" fill="#002825"/>
</svg>
